src/assets/svgs/Parallax-Sea1.svg

<svg xmlns="http://www.w3.org/2000/svg" width="1920" height="1034" fill="none" xmlns:v="https://vecta.io/nano"><mask id="A" maskUnits="userSpaceOnUse" x="-1014" y="0" width="3584" height="1222"><path d="M2570 .957h-3584V1221.83h3584V.957z" fill="#fff"/></mask><g mask="url(#A)"><path d="M2659.6 929.455H-1019.66V1261.68H2659.6V929.455Z" fill="url(#B)"/><path opacity=".15" fill-rule="evenodd" d="M2579.87 929.456v27.93c-32.72 3.049-126.89 11.128-198.39 10.527-87.93-.708-115.36 1.95-107.13 30.906 8.23 28.961-476.49 15.671-476.49 15.671s45.15 6.02 42.41 18.11c-2.55 11.2-103.82 1.56-117.86.17 10.17 1.21 64.32 8.09 64.32 17.9 0 10.88-355.77 8.47-410.72-9.03-54.96-17.52 42.57-34.38 37.08-35.59s-537.094 9.64-550.811-7.124c-13.717-16.729 166.201-17.013 166.201-17.013s-46.684 14.461-26.11 17.013c20.62 2.554 336.88-8.86 333.81-31.013-3.11-22.116-876.351-.495-883.25 12.795-6.576 12.724 72.75 12.971 79.249 12.971-11.419.107-238.585 2.161-238.585 16.271 0 14.5 169.993 17.22 166.683 19.92-3.351 2.72-403.616-7.23-410.841 0-7.181 7.23 52.533 1.8 54.634 5.42 2.056 3.61-486.292 9.96-491.417 1.81-5.165-8.12-218.413-9.04-242.097-7.23-20.216 1.52-5.205 9-.363 11.2-8.028-3.37-49.106-20.77-49.106-25.67 0-5.45 403.858 19.89 416.208-5.45 12.386-25.308-134.972-18.999-137.028-24.423s311.137-.885 273.894-23.996c-28.446-17.651-613.352 13.149-887.001 28.638v-60.713h3592.71z" fill="#4685e4"/><path opacity=".15" fill-rule="evenodd" d="M2579.87 929.456v18.941H1568.48c33.85-1.926 58.3-4.3 64.39-7.188 26.11-12.297-1181.307 6.526-1181.307 6.526l-962.902-8.812c-4.318 3.129 3.472 6.526 14.528 9.471h-516.039v-18.942h3592.72v.004z" fill="#4685e4"/></g><defs><linearGradient id="B" x1="819.972" y1="1261.68" x2="819.972" y2="929.456" gradientUnits="userSpaceOnUse"><stop stop-color="#fccec7"/><stop offset=".673" stop-color="#ffe6e1"/><stop offset="1" stop-color="#bdc8de"/></linearGradient></defs></svg>

<svg width="1920" height="1034" viewBox="0 0 1920 1034" fill="none" xmlns="http://www.w3.org/2000/svg">
<mask id="mask0_44_1842" style="mask-type:luminance" maskUnits="userSpaceOnUse" x="-1014" y="0" width="3584" height="1222">
<path d="M2570 0.956604H-1014V1221.83H2570V0.956604Z" fill="white"/>
</mask>
<g mask="url(#mask0_44_1842)">
<path d="M2659.6 929.455H-1019.66V1261.68H2659.6V929.455Z" fill="url(#paint0_linear_44_1842)"/>
<path opacity="0.15" fill-rule="evenodd" clip-rule="evenodd" d="M2579.87 929.456V957.386C2547.15 960.435 2452.98 968.514 2381.48 967.913C2293.55 967.205 2266.12 969.863 2274.35 998.819C2282.58 1027.78 1797.86 1014.49 1797.86 1014.49C1797.86 1014.49 1843.01 1020.51 1840.27 1032.6C1837.72 1043.8 1736.45 1034.16 1722.41 1032.77C1732.58 1033.98 1786.73 1040.86 1786.73 1050.67C1786.73 1061.55 1430.96 1059.14 1376.01 1041.64C1321.05 1024.12 1418.58 1007.26 1413.09 1006.05C1407.6 1004.84 875.996 1015.69 862.279 998.926C848.562 982.197 1028.48 981.913 1028.48 981.913C1028.48 981.913 981.796 996.374 1002.37 998.926C1022.99 1001.48 1339.25 990.066 1336.18 967.913C1333.07 945.797 459.829 967.418 452.93 980.708C446.354 993.432 525.68 993.679 532.179 993.679C520.76 993.786 293.594 995.84 293.594 1009.95C293.594 1024.45 463.587 1027.17 460.277 1029.87C456.926 1032.59 56.6613 1022.64 49.4359 1029.87C42.2549 1037.1 101.969 1031.67 104.07 1035.29C106.126 1038.9 -382.222 1045.25 -387.347 1037.1C-392.512 1028.98 -605.76 1028.06 -629.444 1029.87C-649.66 1031.39 -634.649 1038.87 -629.807 1041.07C-637.835 1037.7 -678.913 1020.3 -678.913 1015.4C-678.913 1009.95 -275.055 1035.29 -262.705 1009.95C-250.319 984.642 -397.677 990.951 -399.733 985.527C-401.789 980.103 -88.5956 984.642 -125.839 961.531C-154.285 943.88 -739.191 974.68 -1012.84 990.169V929.456H2579.87Z" fill="#4685E4"/>
<path opacity="0.15" fill-rule="evenodd" clip-rule="evenodd" d="M2579.87 929.456V948.397H1568.48C1602.33 946.471 1626.78 944.097 1632.87 941.209C1658.98 928.912 451.563 947.735 451.563 947.735C451.563 947.735 -500.323 930.957 -511.339 938.923C-515.657 942.052 -507.867 945.449 -496.811 948.394H-1012.85V929.452H2579.87V929.456Z" fill="#4685E4"/>
</g>
<defs>
<linearGradient id="paint0_linear_44_1842" x1="819.972" y1="1261.68" x2="819.972" y2="929.456" gradientUnits="userSpaceOnUse">
<stop stop-color="#FCCEC7"/>
<stop offset="0.6732" stop-color="#FFE6E1"/>
<stop offset="1" stop-color="#BDC8DE"/>
</linearGradient>
</defs>
</svg>
